X: 1
T: Parnell's March
M: 6/8
L: 1/8
R: jig
K: Gmaj
d2 c|:BGD BGD|d3 d2c|BGD BGD|d3 d2c|
B2B BAB|d3 dcB|A^GA d^cd|A^GA d^cd|
BGD BGD|d3 dcB|cBc cde|g3 gfe|
d2B GAB|c2A F2G|AGG GAF|1G3 d2c:|2G3 g2=f||
ecc cBc|c3 gfe|d2d ded|B3 B2c|
d3 d^cd|e3 dcB|A^GA d^cd|A^GA d^cd|
BGD BGD|d3 dcB|cBc cde|g3 gfe|
d2B GAB|c2A F2G|AGG GAF|1G3 g2=f:|2G3 d2c||
